public/assets/images/icons/green/export/wiki.svg

<svg width="16" height="16" xmlns="http://www.w3.org/2000/svg" viewBox="0 0 16 16" shape-rendering="geometricPrecision" fill="#00962d"><defs><mask id="a"><rect fill="#fff" width="100%" height="100%"/><path d="M13.848-1.1L12.051.695l.286.287A4.455 4.455 0 0 0 9.23 5.236v.987h2.626v-.988c0-.491.191-.954.538-1.302l.03-.03 1.425 1.421 3.212-3.213L13.848-1.1z" fill="#000"/></mask></defs><path d="M13.848-.04l-.736.735.821.821h-.234l-.156.008A3.722 3.722 0 0 0 9.98 5.235v.237h1.126v-.237c0-.691.27-1.343.759-1.833a2.579 2.579 0 0 1 1.833-.759h.3l-.886.887.735.734L16 2.111 13.848-.04z" fill="#cb1800"/><path d="M15.609 3.739c-.906 1.865-2.393 2.551-3.389 2.805.568 1.092.975 2.484 1.15 4.041 1.175-.793 3.569-2.961 2.239-6.846zm-15.219 0c-1.328 3.885 1.065 6.053 2.241 6.846.174-1.557.58-2.949 1.147-4.041-.994-.254-2.481-.94-3.388-2.805zm7.611.348c-2.367 0-4.286 3.66-4.286 8.174h8.57c0-4.514-1.918-8.174-4.284-8.174z" mask="url(#a)"/></svg>

<?xml version="1.0"?><!DOCTYPE svg PUBLIC "-//W3C//DTD SVG 1.1//EN" "http://www.w3.org/Graphics/SVG/1.1/DTD/svg11.dtd"><svg width="16px" height="16px" xmlns="http://www.w3.org/2000/svg" viewBox="0 0 16 16" shape-rendering="geometricPrecision" fill="#00962d"><defs><mask id="export-path"><rect fill="#fff" width="100%" height="100%"/><path d="M13.848-1.1l-1.797,1.795l0.286,0.287c-1.812,0.575-3.107,2.263-3.107,4.254v0.987h2.626 V5.235c0-0.491,0.191-0.954,0.538-1.302c0.01-0.01,0.021-0.02,0.03-0.03l1.425,1.421l3.212-3.213L13.848-1.1z" fill="#000"/></mask></defs><path id="export" display="inline" d="M13.848-0.04l-0.736,0.735l0.821,0.821h-0.234 l-0.156,0.008c-1.978,0.084-3.563,1.714-3.563,3.711v0.237h1.126V5.235c0-0.691,0.27-1.343,0.759-1.833 c0.49-0.489,1.141-0.759,1.833-0.759h0.237V2.643h0.063L13.112,3.53l0.735,0.734L16,2.111L13.848-0.04z" fill="#cb1800"/><g mask="url(#export-path)"><g><path d="M15.609,3.739c-0.906,1.865-2.393,2.551-3.389,2.805c0.568,1.092,0.975,2.484,1.15,4.041 C14.545,9.792,16.939,7.624,15.609,3.739z M0.39,3.739c-1.328,3.885,1.065,6.053,2.241,6.846c0.174-1.557,0.58-2.949,1.147-4.041 C2.784,6.29,1.297,5.604,0.39,3.739z M8.001,4.087c-2.367,0-4.286,3.66-4.286,8.174h8.57C12.285,7.747,10.367,4.087,8.001,4.087z"/></g></g></svg>
